assets/img/icons/pills.svg

<svg width="25" height="25" viewBox="0 0 25 25" fill="none" xmlns="http://www.w3.org/2000/svg">
<g clip-path="url(#clip0_364_90)">
<path d="M12.7688 22.2167C11.949 21.0969 11.4583 19.7208 11.4583 18.2292C11.4583 14.4958 14.4958 11.4583 18.2292 11.4583C19.7208 11.4583 21.0958 11.949 22.2167 12.7688L12.7688 22.2167ZM14.2417 23.6896C15.3615 24.5094 16.7375 25 18.2281 25C21.9615 25 24.999 21.9625 24.999 18.2292C24.999 16.7375 24.5083 15.3625 23.6885 14.2417L14.2417 23.6885V23.6896ZM12.499 11.4583V6.25C12.499 2.80417 9.69479 0 6.24896 0C2.80313 0 0 2.80417 0 6.25V11.4583H12.5H12.499ZM9.37396 18.2292C9.37396 16.5052 9.87396 14.9021 10.726 13.5417H0V18.75C0 22.1958 2.80417 25 6.25 25C8.04063 25 9.65417 24.2385 10.7948 23.0271C9.9 21.6437 9.375 19.999 9.375 18.2292H9.37396Z" fill="#BF1F1F"/>
</g>
<defs>
<clipPath id="clip0_364_90">
<rect width="25" height="25" fill="white"/>
</clipPath>
</defs>
</svg>

<svg width="25" height="25" fill="none" xmlns="http://www.w3.org/2000/svg"><g clip-path="url(#a)"><path d="M12.769 22.217a6.728 6.728 0 0 1-1.31-3.988 6.779 6.779 0 0 1 6.77-6.77 6.73 6.73 0 0 1 3.988 1.31l-9.448 9.448Zm1.473 1.473A6.727 6.727 0 0 0 18.228 25 6.779 6.779 0 0 0 25 18.23a6.73 6.73 0 0 0-1.31-3.988l-9.447 9.447Zm-1.743-12.232V6.25A6.258 6.258 0 0 0 6.249 0 6.257 6.257 0 0 0 0 6.25v5.208h12.5-.001ZM9.374 18.23c0-1.724.5-3.327 1.352-4.687H0v5.208A6.258 6.258 0 0 0 6.25 25c1.79 0 3.404-.762 4.545-1.973a8.803 8.803 0 0 1-1.42-4.798h-.001Z" fill="#BF1F1F"/></g><defs><clipPath id="a"><path fill="#fff" d="M0 0h25v25H0z"/></clipPath></defs></svg>
